X:46.3
T:Ridees \`a 6 temps: Tune 3
R:Breton
G:sax
M:2/4
L:1/8
P:soprano: 4x (finish on ^cA B2 - i.e. 4th bar of C music)
K:Bm
|:"Em"Be ed| f2 "Dm"fg| fe "Bm7"ed|"Em"Be ed| f2 "Dm"fg| fe "Bm7"e2:|
|:"Em"Be ed| f2 "Dm"fe | dc "Bm7"BA | "A"Ae ed | f2 "Dm"fg | fe "Em"e2:|
"A"Ae ed | c2 A2| "G"GB "A"A2| "A"ce ed| c2 Ac | "G"BG "A"A2|
"A"ce ed | c2 A2| GB A2| "Em"Be ed| "A"c2 Ac | "G"BA B2||
%
% note: played with swung quavers

